common/svg/apple-icon.svg

<svg fill="none" height="20" viewBox="0 0 20 20" width="20" xmlns="http://www.w3.org/2000/svg"><path d="m17.6592 15.3914c-.2919.6744-.6374 1.2952-1.0378 1.8659-.5457.7781-.9925 1.3167-1.3369 1.6157-.5338.4909-1.1057.7423-1.7181.7566-.4397 0-.9699-.1251-1.5871-.3789-.6193-.2526-1.1883-.3777-1.7087-.3777-.54566 0-1.13094.1251-1.75696.3777-.62697.2538-1.13205.3861-1.51822.3992-.5873.025-1.17269-.2335-1.75701-.7769-.37295-.3252-.83942-.8829-1.39824-1.6729-.59957-.8435-1.0925-1.8218-1.47867-2.937-.41358-1.2047-.6209-2.3711-.6209-3.5005 0-1.29359.27953-2.40932.83942-3.3443.44003-.75101 1.02542-1.34344 1.75808-1.77834s1.5243-.65652 2.37683-.6707c.46648 0 1.0782.14429 1.83839.42787.75804.28453 1.24477.42883 1.45818.42883.1595 0 .7002-.16872 1.6169-.50509.8668-.31193 1.5984-.44109 2.1977-.39022 1.6241.13107 2.8442.77127 3.6556 1.92466-1.4525.88005-2.1709 2.11267-2.1566 3.69389.0131 1.2317.4599 2.2566 1.338 3.0704.398.3778.8424.6697 1.3369.877-.1072.311-.2204.6089-.3408.8948zm-3.7246-14.656781c0 .965381-.3527 1.866741-1.0557 2.701041-.8484.99182-1.8745 1.56494-2.98727 1.4745-.01418-.11582-.0224-.23771-.0224-.36579 0-.92676.40347-1.91858 1.11987-2.72952.3577-.4106.8126-.752 1.3643-1.024349.5505-.268281 1.0712-.416648 1.5609-.442051.0143.129053.0203.258117.0203.386157z" fill="#000"/></svg>

<svg width="20" height="20" viewBox="0 0 20 20" fill="none" xmlns="http://www.w3.org/2000/svg">
<path d="M17.6592 15.3914C17.3673 16.0658 17.0218 16.6866 16.6214 17.2573C16.0757 18.0354 15.6289 18.574 15.2845 18.873C14.7507 19.3639 14.1788 19.6153 13.5664 19.6296C13.1267 19.6296 12.5965 19.5045 11.9793 19.2507C11.36 18.9981 10.791 18.873 10.2706 18.873C9.72494 18.873 9.13966 18.9981 8.51364 19.2507C7.88667 19.5045 7.38159 19.6368 6.99542 19.6499C6.40812 19.6749 5.82273 19.4164 5.23841 18.873C4.86546 18.5478 4.39899 17.9901 3.84017 17.2001C3.2406 16.3566 2.74767 15.3783 2.3615 14.2631C1.94792 13.0584 1.7406 11.892 1.7406 10.7626C1.7406 9.46901 2.02013 8.35328 2.58002 7.4183C3.02005 6.66729 3.60544 6.07486 4.3381 5.63996C5.07076 5.20506 5.8624 4.98344 6.71493 4.96926C7.18141 4.96926 7.79313 5.11355 8.55332 5.39713C9.31136 5.68166 9.79809 5.82596 10.0115 5.82596C10.171 5.82596 10.7117 5.65724 11.6284 5.32087C12.4952 5.00894 13.2268 4.87978 13.8261 4.93065C15.4502 5.06172 16.6703 5.70192 17.4817 6.85531C16.0292 7.73536 15.3108 8.96798 15.3251 10.5492C15.3382 11.7809 15.785 12.8058 16.6631 13.6196C17.0611 13.9974 17.5055 14.2893 18 14.4966C17.8928 14.8076 17.7796 15.1055 17.6592 15.3914ZM13.9346 0.734619C13.9346 1.7 13.5819 2.60136 12.8789 3.43566C12.0305 4.42748 11.0044 5.0006 9.89163 4.91016C9.87745 4.79434 9.86923 4.67245 9.86923 4.54437C9.86923 3.61761 10.2727 2.62579 10.9891 1.81485C11.3468 1.40425 11.8017 1.06285 12.3534 0.790501C12.9039 0.52222 13.4246 0.373853 13.9143 0.34845C13.9286 0.477503 13.9346 0.606567 13.9346 0.734607V0.734619Z" fill="black"/>
</svg>
